public/clipboard-text.svg

<svg height="24" viewBox="0 0 24 24" width="24" xmlns="http://www.w3.org/2000/svg"><path d="m18 4h1c1.1045695 0 2 .8954305 2 2v15c0 1.1045695-.8954305 2-2 2h-14c-1.1045695 0-2-.8954305-2-2v-15c0-1.1045695.8954305-2 2-2h1c0-1.1045695.8954305-2 2-2h.99592076c.75227907-.63702537 1.84321654-1 3.00407924-1s2.2518002.36297463 3.0040792 1h.9959208c1.1045695 0 2 .8954305 2 2zm-11.73243561 2h-1.26756439v15h14v-15h-1.2675644c-.3458094.59780137-.9921532 1-1.7324356 1h-8c-.74028236 0-1.38662619-.40219863-1.73243561-1zm1.73243561 10v-2h6v2zm0-4v-2h8v2zm2.1566481-8.34462251-.29903006.34462251h-.45627145-1.40134659v1h8v-1h-1.857618l-.2990301-.34462251c-.3285446-.37863708-1.0327648-.65537749-1.8433519-.65537749s-1.5148073.27674041-1.8433519.65537749z" fill-rule="evenodd"/></svg>

<svg xmlns="http://www.w3.org/2000/svg" width="24" height="24" viewBox="0 0 24 24">
  <path fill-rule="evenodd" d="M18,4 L19,4 C20.1045695,4 21,4.8954305 21,6 L21,21 C21,22.1045695 20.1045695,23 19,23 L5,23 C3.8954305,23 3,22.1045695 3,21 L3,6 C3,4.8954305 3.8954305,4 5,4 L6,4 C6,2.8954305 6.8954305,2 8,2 L8.99592076,2 C9.74819983,1.36297463 10.8391373,1 12,1 C13.1608627,1 14.2518002,1.36297463 15.0040792,2 L16,2 C17.1045695,2 18,2.8954305 18,4 Z M6.26756439,6 L5,6 L5,21 L19,21 L19,6 L17.7324356,6 C17.3866262,6.59780137 16.7402824,7 16,7 L8,7 C7.25971764,7 6.61337381,6.59780137 6.26756439,6 Z M8,16 L8,14 L14,14 L14,16 L8,16 Z M8,12 L8,10 L16,10 L16,12 L8,12 Z M10.1566481,3.65537749 L9.85761804,4 L9.40134659,4 L8,4 L8,5 L16,5 L16,4 L14.142382,4 L13.8433519,3.65537749 C13.5148073,3.27674041 12.8105871,3 12,3 C11.1894129,3 10.4851927,3.27674041 10.1566481,3.65537749 Z"/>
</svg>
